X:65
T:Maid of Judah, The
S:John Moore's Book 2
Z:Transcribed by Edmund Spriggs 04/2021
%%VWML: Moore1-4494-p48-0
F:http://www.vwml.org/record/Moore2/4494/p48
M:C
L:1/8
K:G
D|G2GB edBG|F2FA c2AG|((3FED) ((3AGF) ((3cBA) ((3edc)|B4z3B|
B3B B2BB|B2g2 fecA|FA ed d2cA|B4{dc}B2B2|
B3B B2BB|B2g2fecA|FAe2 d!fermata!d2F|G4z3:|
|:A|A2AA2 A dd|d^cBA d2d2|e2 ee e^cAG|G4 {AG}F2A2|
d2dd d2dd|dfed ed^cB|B2AF A2GE|G4 {AG}F2A2|
d2dd d2dd|dfed ed^cB|B2AF B2GE|E6"Da Capo"D2:|



%abc
%%abc-alias none
%%abc-creator ABCexplorer 1.6.1 [30/04/2021]

